X: 32
T:Bourree Tournante
M:3/8
L:1/8
R:Bourree
Z:Steve Mansfield
K:C
e/f/ |: geg | g/e/ c e/f/ | geg | g2 d/e/ | fdd | d2 e/f/ |
ecc |1 c2 e/f/ :|2 cBA |: G2A | G2A | Gcd | e3 |
dcd | cBA |1 GAG | e2c :|2 Ged | c2 ||

